X:3
T:The Sound of Silence
H: 
B: 
C:Pentatonix
O:Transcribed by Kevin Fraser
Z:Kevin Fraser
Q:1/4=90
K:D
M:4/4
L:1/8
R:March
U: R = ///
U: r = //
U: V = !accent!
V:1 gstem=up stem=down name="Harmony 3" sname=Kirstin vol 60
V:2 gstem=up stem=down name="Harmony" sname=Mitch % vol 60
V:3 gstem=up stem=down name="Harmony 2" sname=Kevin % vol 60
V:4 gstem=up stem=down name="Melody" sname=Scott % vol 100
V:5 gstem=up stem=down name="Harmony 4" sname=Matt % vol 60
I:MIDI=program 110
%%MIDI gracedivider 8
%%MIDI gchord
%%MIDI beatstring
%%MIDI program 109 #bagpipes
%%MIDI vol 100
%%MIDI droneon

[V:1]  Z                         |    Z   |              Z               |  Z    |             Z              | (A8        |  A6)                     z2|    (A8     | A2) z2    F2 E2    |
w:                               |        |                              |       |                            | oooh       | oooh                       | oooh       | oooh      oooh     |
[V:2]  Z                         |    Z   |              Z               |  Z    |             Z              |  F4 (E4    |  E6)                     z2| F4 (E4     | E2) z2    (D4      |
w:                               |        |                              |       |                            | oooh       | oooh                       | oooh       | oooh      oooh     |
[V:3]  Z                         |    Z   |              Z               |  Z    |             Z              | d4    (c4  |  c6)                     z2| d4 (c4     | c2) z2    (A4      |
w:                               |        |                              |       |                            | oooh       | oooh                       | oooh       | oooh      oooh     |
[V:4] z2 DD     FF        AA     | G7 z   | zC   CC      EE        GG    | F7 z  | zF       FF   AA    cc     | d2 d(c c4) | z2  FF      AA          cc | d2 d(c c4) | z2 FF     d(d d2   | 
w:       Hel-lo Dark-ness my old | friend | I've come to talk with you a-|gain   | Be cause a vi-sion soft-ly | creep-ing |  left its seeds while I was | sleep-ing  | and the   vision
[V:5]            Z               |   Z    |              Z               |   Z   |            Z               |       Z    |            Z               |        Z   |


[V:1]   F2 G2 (G4                | G8             |  G2) z2   C4  | E2  F2 z4        | E6 z2      |
w:      ooh______________________|                |               |                  | sound      |
[V:2]   D2)    E2       (F4      | F4)      (E4   |  E2) z2  A,4  | B,2 C2 z4        | B6 z2      |
w:      ooh______________________|                |               |                  | sound      |
[V:3]   A2)    (d6               | d4)      (c4   |  c2) z2  F4   | G2 A2 z4         | A4 G2 z2   |
w:      ooh______________________|                |               |                  | sound      |
[V:4] d2) de f(f f2)             | e(d d)(c c4)   | z2 d>c (A4    | A4) z F      FF  | c6      zE | F(D D6 |]
w:    that was planted           | in my brain    | still remains |       within the | sound   of | silence |]
[V:5]            Z               |      Z         |     Z         |        Z         |      Z     |    Z    |]
























